src/pos-icons/google-chrome.svg

<svg height="24" viewBox="0 0 24 24" width="24" xmlns="http://www.w3.org/2000/svg"><path d="m12 20 3.46-6h-.01c.34-.6.55-1.27.55-2 0-1.2-.54-2.27-1.38-3h4.79c.38.93.59 1.94.59 3a8 8 0 0 1 -8 8m-8-8c0-1.46.39-2.82 1.07-4l3.47 6h.01c.69 1.19 1.95 2 3.45 2 .45 0 .88-.09 1.29-.23l-2.4 4.14c-3.89-.54-6.89-3.87-6.89-7.91m11 0a3 3 0 0 1 -3 3 3 3 0 0 1 -3-3 3 3 0 0 1 3-3 3 3 0 0 1 3 3m-3-8c2.96 0 5.54 1.61 6.92 4h-6.92c-1.94 0-3.55 1.38-3.92 3.21l-2.38-4.13c1.46-1.87 3.74-3.08 6.3-3.08m0-2a10 10 0 0 0 -10 10 10 10 0 0 0 10 10 10 10 0 0 0 10-10 10 10 0 0 0 -10-10z"/></svg>

<?xml version="1.0" encoding="UTF-8"?><!DOCTYPE svg PUBLIC "-//W3C//DTD SVG 1.1//EN" "http://www.w3.org/Graphics/SVG/1.1/DTD/svg11.dtd"><svg xmlns="http://www.w3.org/2000/svg" xmlns:xlink="http://www.w3.org/1999/xlink" version="1.1" id="mdi-google-chrome" width="24" height="24" viewBox="0 0 24 24"><path d="M12,20L15.46,14H15.45C15.79,13.4 16,12.73 16,12C16,10.8 15.46,9.73 14.62,9H19.41C19.79,9.93 20,10.94 20,12A8,8 0 0,1 12,20M4,12C4,10.54 4.39,9.18 5.07,8L8.54,14H8.55C9.24,15.19 10.5,16 12,16C12.45,16 12.88,15.91 13.29,15.77L10.89,19.91C7,19.37 4,16.04 4,12M15,12A3,3 0 0,1 12,15A3,3 0 0,1 9,12A3,3 0 0,1 12,9A3,3 0 0,1 15,12M12,4C14.96,4 17.54,5.61 18.92,8H12C10.06,8 8.45,9.38 8.08,11.21L5.7,7.08C7.16,5.21 9.44,4 12,4M12,2A10,10 0 0,0 2,12A10,10 0 0,0 12,22A10,10 0 0,0 22,12A10,10 0 0,0 12,2Z" /></svg>
